!!!OTL: Die Schlacht vor Prag. 1757.
!!!OTL-incipit: ALS DIE PREUSSEN MARSCHIERTEN VOR PRAG
!!!COM: Volksweise
!!!ARE: Europa, Mitteleuropa, Deutschland
!!!SCT: F0584
!!!TXL: @@DE
!!!YEM: Copyright 1995, estate of Helmut Schaffrath.
**kern	**text
*ICvox	*
*clefG2	*
*M4/4	*
*met(c)	*
*k[f#]	*
*G:	*
!LO:TX:a:t=P:only the highest voice encoded:problem	!
{(>8g	1._Als
8b/)	die
=1	=1
4dd	Preußen
(>8b/	.
8g)	mar-
(>8dd/	-ſchir-
8cc/)	.
(>8a	-ten
8f#)	vor
=2	=2
2g	Prag,
8r}	.
{(>8d	gleich
8f#)	nach
8g	der
=3	=3
4a	Lo-
4b/	-wo-
4cc/	-ſi-
4b/	-ten
=4	=4
2a	Schlacht,
4r}	.
{(>8g	auf
8b/)	dem
=5	=5
(>8dd	weißen
8cc	.
8b)	Berg
8a	das
4g	Lager
8fn	ward
8f	ge-
=6	=6
(>4e	-ſchla-
4g)	.
4cc/	-gen,
8r}	.
{8cc/	da-
=7	=7
8ee	-hin
8dd	kam
8cc	man
8b/	mit
4a	Roß
4g	und
=8	=8
(>4f#	Wa-
4a)	.
4dd/	-gen;
8r}	.
{8d	die
=9	=9
4g	Mörſer
4b/	.
4a	wur-
4cc/	-den
=10	=10
4b/	auf-
(8cc/	-ge-
8ee/)	.
4dd/	-führt,
8r}	.
{8dd/	Schwerin
=11	=11
8gg	.
8dd	der
8ee	hat
8cc	ſie
4dd	kom-
(>8.cc/	-man-
16b/)	.
=12	=12
2b/	-dirt.
4r}	.
==	==
!!!AGN: Soldaten -, Kriegs -, erzaehlendes Volks - Lied
!!!ONB: ESAC (Essen Associative Code) Database: FINK
!!!AMT: simple quadruple
!!!AIN: vox
!!!EED: Helmut Schaffrath
!!!EEV: 1.0
!!!RDF**kern: > = above
!!!GTL: Soldaten- und Jaegerlieder
!!Text: Volkslied
!!!source: Musikalischer Hausschatz der Deutschen. Eine Sammlung von über 1000 Liedern und Gesängen mit Singstimmen und Klavierbegleitung. Leipzig, Litterarisches Verlags-Haus.
!!!page: 380
!!!URL-scan: https://www.digitale-sammlungen.de/en/view/bsb11144622?page=347
!!!ENC: Anna Maria Matuszewska
!!!EEV: 2024/08/02
*-	*-